X:1217
L:1/8
Q:1/4=100
M:4/4
K:G
 D | G2 G>G GFGA | B<EA>G FDEF | G2 G>G GFGA | B>GA>F G3 :: g | .f.e.d.c .B.A.G.g | 
 .f.e.d.c .B.A.G.g | .f.e.d.c cBcd | e<EA>G FDEF | G2 G>G GFGA | BEAG FDEF | G2 G>G GFGA | 
 BGAF G3 :: d | g2 gf g3 f | edcB ABc^c | d2 d>d d^cde | f>ge>f d3 B | c2 c>c cBcd | eEAG FDEF | 
 G2 G>G GFGA | BGAF G3 :|

